app/assets/images/heroicons/outline/h1.svg

<svg width="24" height="24" viewBox="0 0 24 24" fill="none" xmlns="http://www.w3.org/2000/svg">
<path d="M2.24316 4.49316V11.9939M2.24316 11.9939V19.4946M2.24316 11.9939L12.7434 11.9946M12.7434 4.49389V11.9946M12.7434 11.9946V19.4953M17.244 10.8682L19.494 9.3681V19.4941M19.494 19.4941H17.244M19.494 19.4941H21.744" stroke="black" stroke-width="1.5" stroke-linecap="round" stroke-linejoin="round"/>
</svg>

<svg xmlns="http://www.w3.org/2000/svg" fill="none" viewBox="0 0 24 24" stroke-width="1.5" stroke="currentColor" aria-hidden="true" data-slot="icon">
  <path stroke-linecap="round" stroke-linejoin="round" d="M2.243 4.493v7.5m0 0v7.502m0-7.501h10.5m0-7.5v7.5m0 0v7.501m4.501-8.627 2.25-1.5v10.126m0 0h-2.25m2.25 0h2.25"/>
</svg>
